svgs/sharp-regular/usb-drive.svg

<svg xmlns="http://www.w3.org/2000/svg" viewBox="0 0 640 512"><!--! Font Awesome Pro 6.6.0 by @fontawesome - https://fontawesome.com License - https://fontawesome.com/license (Commercial License) Copyright 2024 Fonticons, Inc. --><path d="M48 144l0 224 352 0 0-224L48 144zM0 96l48 0 352 0 48 0 0 48 0 224 0 48-48 0L48 416 0 416l0-48L0 144 0 96zm640 32l0 256-160 0 0-256 160 0zm-56 56l-48 0 0 48 48 0 0-48zm-48 96l0 48 48 0 0-48-48 0z"/></svg>

<svg xmlns="http://www.w3.org/2000/svg" viewBox="0 0 640 512"><!--! Font Awesome Pro 6.4.0 by @fontawesome - https://fontawesome.com License - https://fontawesome.com/license (Commercial License) Copyright 2023 Fonticons, Inc. --><path d="M48 144V368H400V144H48zM0 96H48 400h48v48V368v48H400 48 0V368 144 96zm640 32V384H480V128H640zm-56 56H536v48h48V184zm-48 96v48h48V280H536z"/></svg>
